src/resources/assets/public/favicon.svg

<svg xmlns="http://www.w3.org/2000/svg" width="1000" height="1000" xmlns:v="https://vecta.io/nano"><rect width="1000" height="1000" rx="200" fill="#2a396f"/><g transform="matrix(6.8376 0 0 6.8376 100 247.913369)"><svg width="117" height="74"><svg width="117" height="74" fill="none"><path d="M0 73.65L32.72 0h29.16l-7.4 45.93L87.86 0H117L84.28 73.65H62.6l10-22.5L78 39.69l7.18-13.25H85L50.53 73.65H33.75l7.65-47.21h-.2l-3.82 10.79-4.61 11.46-11.09 25L0 73.65z" fill="#fff"/></svg></svg></g></svg>

<svg xmlns="http://www.w3.org/2000/svg" version="1.1" xmlns:xlink="http://www.w3.org/1999/xlink" xmlns:svgjs="http://svgjs.com/svgjs" width="1000" height="1000"><rect width="1000" height="1000" rx="200" ry="200" fill="#2a396f"></rect><g transform="matrix(6.837606837606837,0,0,6.837606837606837,100,247.91336894239117)"><svg xmlns="http://www.w3.org/2000/svg" version="1.1" xmlns:xlink="http://www.w3.org/1999/xlink" xmlns:svgjs="http://svgjs.com/svgjs" width="117" height="74"><svg width="117" height="74" viewBox="0 0 117 74" fill="none" xmlns="http://www.w3.org/2000/svg">
<path d="M0 73.65L32.72 0H61.88L54.48 45.93L87.86 0H117L84.28 73.65H62.6L72.6 51.15L78 39.69L85.18 26.44H85L50.53 73.65H33.75L41.4 26.44H41.2L37.38 37.23L32.77 48.69L21.68 73.69L0 73.65Z" fill="white"></path>
</svg></svg></g></svg>
